X:381
T: Absage (107b), S. 260
N: T0270
O: Luxemburg
S: Singendes Volk, Esch-Alzette 1937 posth.]
N: Triole zu 3 Achteln,
N: mit Verlngerung um eine halbe
N: Zhlzeit; Bgen, J. Molitor, 1900,
N: mitgeteilt: hhh Heinrich Godefroid (Lehrer);
N: (107c)- Rodershausen, ? J. Molitor;
N: mitgeteilt, hhh Josef Bour (Lehrer)
R: Liebeslieder]
M: 4/4
L: 1/8
K: C
GG | A2G2A2B2 | d4c2
cc | B2d2c2e2 | d4z
GGG | f2e2d2c2 | d4A2
BA | G2cde2d2 | c4z2

@@@ Tune index: 8435
